X: 1840
T: Argeres
R: reel
M: 4/4
K: Dmajor
|:"D"defg "Em"e3d|"A"c2A2 A4|a2e2 a3g|"D"f2d2 d4|
"D"defg "Em"e3d|"A"cBcd c2 A2|"G"Bcd2 "A"cdec|"D"d4d4:|
|:"A"cde2 cde2|a2e2 a2e2|cde2 cde2|a2e2 a2e2|
"D"a2gf "Em"g2 ag|"D"f2ed "A"c2a2|"G"Bcd2 "A"cdec|"D"d4 d4:|

